src/Assets/icons/facebook.svg

<svg width="16" height="17" viewBox="0 0 16 17" fill="none" xmlns="http://www.w3.org/2000/svg">
<path d="M16 8.52246C16 4.10418 12.4183 0.522461 8 0.522461C3.58172 0.522461 0 4.10418 0 8.52246C0 12.5154 2.92547 15.8251 6.75 16.4253V10.835H4.71875V8.52246H6.75V6.75996C6.75 4.75496 7.94438 3.64746 9.77172 3.64746C10.6467 3.64746 11.5625 3.80371 11.5625 3.80371V5.77246H10.5538C9.56 5.77246 9.25 6.38918 9.25 7.02246V8.52246H11.4688L11.1141 10.835H9.25V16.4253C13.0745 15.8251 16 12.5154 16 8.52246Z" fill="#232536"/>
</svg>

<svg xmlns="http://www.w3.org/2000/svg" width="16" height="17" fill="none" xmlns:v="https://vecta.io/nano"><path d="M16 8.522a8 8 0 1 0-16 0c0 3.993 2.925 7.303 6.75 7.903v-5.59H4.719V8.522H6.75V6.76c0-2.005 1.194-3.113 3.022-3.113a12.31 12.31 0 0 1 1.791.156v1.969h-1.009c-.994 0-1.304.617-1.304 1.25v1.5h2.219l-.355 2.313H9.25v5.59c3.825-.6 6.75-3.91 6.75-7.903z" fill="#232536"/></svg>
